!!! OTL: Berkowitz486
!!! Chapter: 1
!!! Section: IV
!!! Page: 121
!!! Mode: 
!!! Encoder: DJB
**kern
*staff1
*I"Piano
=1-
*clefG2
*k[b-]
*F:
*M2/4
4r
16r
16c/LL
16d/
16e/JJ
=2
8f/L
8a/J
8cc/L
8a/J
=3
4f/
16r
16d/LL
16e/
16f#/JJ
=4
8g/L
8b-/J
8dd\L
8b-\J
=5
4g/
16r
16e/LL
16f#/
16g#/JJ
=6
8a/L
8cc/J
8ee\L
8cc\J
=7
8a/
4b-\
16g/LL
16e/JJ
=8
8c/L
8d-/J
8c/L
8d-/J
=9
4c/
16r
16c/LL
16d/
16e/JJ
=10
!!linebreak:original
8f/L
8a/J
8cc/L
8a/J
=11
8f/L
8e-/J
16r
16d/LL
16en/
16f#/JJ
=12
8g/L
8b-/J
8dd\L
8b-\J
=13
8g/L
8f/J
16r
16e/LL
16f#/
16g#/JJ
=14
8a/L
8cc/J
8ee\L
8cc\J
=15
8a/L
8b-/J
8g/L
8e/J
=16
8c/L
8dd-/J
8cc/L
8d-/J
=17
8c/L
16d/L
16e/JJ
16f/
16r
8r
==
*-
